!!!COM: Palestrina, Giovanni Perluigi da
!!!OPR: Tu es Petrus (1601)
!!!OTL: Agnus II
**kern	**kern	**kern	**kern	**kern	**kern
*Ibass	*Itenor	*Itenor	*Icalto	*Icalto	*Icant
!Bassus	!Tenor 2	!Tenor 1	!Altus 2	!Altus 1	!Cantus
*clefF4	*clefGv2	*clefGv2	*clefG2	*clefG2	*clefG2
*k[]	*k[]	*k[]	*k[]	*k[]	*k[]
*G:mix	*G:mix	*G:mix	*G:mix	*G:mix	*G:mix
*M4/2	*M4/2	*M4/2	*M4/2	*M4/2	*M4/2
=1	=1	=1	=1	=1	=1
1r	1r	0d	0r	0r	0r
[1G	[1d	.	.	.	.
=2	=2	=2	=2	=2	=2
1G]	1d]	0B	0g	0r	0r
1E	1e	.	.	.	.
=3	=3	=3	=3	=3	=3
1D	1f#	0d	1a	0r	0r
1G	[1g	.	1b	.	.
=4	=4	=4	=4	=4	=4
2C	2g]	0e	2.cc	0r	0r
1C	4c	.	.	.	.
.	4d	.	8b	.	.
.	.	.	8a	.	.
.	4e	.	2g	.	.
.	4f	.	.	.	.
2C	[2g	.	2cc	.	.
=5	=5	=5	=5	=5	=5
1D	2g]	0d	2b	1r	0dd
.	2f#	.	2a	.	.
[1G	2g	.	1b	[1g	.
.	[2d	.	.	.	.
=6	=6	=6	=6	=6	=6
1G]	2d]	0r	1r	1g]	0b
.	2G	.	.	.	.
1r	2r	.	1g	1e	.
.	[2g	.	.	.	.
=7	=7	=7	=7	=7	=7
0r	2g]	0r	1a	1d	0dd
.	2f#	.	.	.	.
.	2g	.	1b	[1g	.
.	2G	.	.	.	.
=8	=8	=8	=8	=8	=8
0r	1c	0r	2.cc	2g]	0ee
.	.	.	.	2c	.
.	.	.	4b	.	.
.	1c	.	2a	2.cc	.
.	.	.	2g	.	.
.	.	.	.	4b	.
=9	=9	=9	=9	=9	=9
0r	0d	0r	2f#	2a	[0dd
.	.	.	1g	2g	.
.	.	.	.	1a	.
.	.	.	2f#	.	.
=10	=10	=10	=10	=10	=10
2r	2G	0d	1g	1b	0dd]
2G	2B	.	.	.	.
2G	2B	.	2r	1r	.
2F#	2A	.	2a	.	.
=11	=11	=11	=11	=11	=11
1G	1B	0d	2g	2r	1r
.	.	.	2g	2g	.
1D	2A	.	2a	2g	1dd
.	2A	.	[2d	2f#	.
=12	=12	=12	=12	=12	=12
2.G	1G	1B	2d]	2g	1dd
.	.	.	2.g	2d	.
4F	.	.	.	.	.
2.E	1G	1B	.	2.g	2ee
.	.	.	4f	.	.
.	.	.	[2e	.	2ee
4D	.	.	.	4f	.
=13	=13	=13	=13	=13	=13
1C	2r	0c	4e]	1e	2.gg
.	.	.	4d	.	.
.	4c	.	2c	.	.
.	4d	.	.	.	4ff
1C	4e	.	[1g	1e	2ee
.	4f	.	.	.	.
.	[2g	.	.	.	2cc
=14	=14	=14	=14	=14	=14
0G	2g]	0B	0g]	1.d	1dd
.	4G	.	.	.	.
.	4A	.	.	.	.
.	4B	.	.	.	4g
.	4c	.	.	.	4a
.	[2d	.	.	2G	4b
.	.	.	.	.	4cc
=15	=15	=15	=15	=15	=15
0r	4d]	0G	[0g	2B	2dd
.	4B	.	.	.	.
.	1e	.	.	2c	1cc
.	.	.	.	2d	.
.	[2d	.	.	[2g	4b
.	.	.	.	.	4a
=16	=16	=16	=16	=16	=16
0r	2d]	0G	0g]	4g]	2b
.	.	.	.	4f	.
.	1c	.	.	2e	2cc
.	.	.	.	2d	1dd
.	2B	.	.	2g	.
=17	=17	=17	=17	=17	=17
2r	1c	0r	0g	1e	2r
2c	.	.	.	.	2ee
2c	1G	.	.	1r	2ee
2B	.	.	.	.	2dd
=18	=18	=18	=18	=18	=18
1c	2r	0r	0g	2r	1ee
.	2e	.	.	2cc	.
1G	2e	.	.	2cc	2gg
.	2d	.	.	2b	[2gg
=19	=19	=19	=19	=19	=19
2.c	2e	0r	1e	2cc	4gg]
.	.	.	.	.	4ff
.	1c	.	.	2g	4ee
4B	.	.	.	.	4dd
1A	.	.	1e	2.cc	4cc
.	.	.	.	.	4b
.	2c	.	.	.	[2a
.	.	.	.	4b	.
=20	=20	=20	=20	=20	=20
2.D	2.d	0r	1f	0a	2a]
.	.	.	.	.	1dd
4E	8c	.	.	.	.
.	8B	.	.	.	.
2.F	2.A	.	1f	.	.
.	.	.	.	.	[2cc
4G	4B	.	.	.	.
=21	=21	=21	=21	=21	=21
1A	1c	0r	1e	1a	4cc]
.	.	.	.	.	4b
.	.	.	.	.	1a
1E	1B	.	1e	1b	.
.	.	.	.	.	2g#
=22	=22	=22	=22	=22	=22
2r	2A	0c	0r	2cc	1a
1F	1f	.	.	1a	.
.	.	.	.	.	2r
2F	2f	.	.	2a	[2cc
=23	=23	=23	=23	=23	=23
1F	1f	0c	1r	1a	2cc]
.	.	.	.	.	2cc
1C	1e	.	2r	2g	1cc
.	.	.	[2g	[2G	.
=24	=24	=24	=24	=24	=24
1G	1d	0B	2g]	4G]	2dd
.	.	.	.	4A	.
.	.	.	2g	4B	4g
.	.	.	.	4c	4a
1G	1G	.	1g	1d	4b
.	.	.	.	.	4cc
.	.	.	.	.	[2dd
=25	=25	=25	=25	=25	=25
1r	2r	0A	2.a	1e	2dd]
.	2A	.	.	.	2cc#
.	.	.	4g	.	.
1D	2d	.	4f	2d	1dd
.	.	.	4e	.	.
.	2f	.	2d	[2a	.
=26	=26	=26	=26	=26	=26
1A	4e	0c	0e	2a]	1r
.	4d	.	.	.	.
.	4c	.	.	2a	.
.	4B	.	.	.	.
1A	2A	.	.	2cc	[1ee
.	[2a	.	.	2a	.
=27	=27	=27	=27	=27	=27
0E	2a]	0B	1e	1b	2ee]
.	4g#	.	.	.	2ee
.	4f#	.	.	.	.
.	1g#	.	1r	1e	1ee
=28	=28	=28	=28	=28	=28
2.F	0a	0A	2r	0r	2cc
.	.	.	2f	.	4a
4G	.	.	.	.	4b
4A	.	.	2e	.	4cc
4B	.	.	.	.	4dd
[2c	.	.	2c	.	4ee
.	.	.	.	.	4ff
=29	=29	=29	=29	=29	=29
2c]	0r	0G	0d	2r	2.gg
4B	.	.	.	2g	.
4A	.	.	.	.	8ff
.	.	.	.	.	8ee
1B	.	.	.	2g	1dd
.	.	.	.	2g	.
=30	=30	=30	=30	=30	=30
2c	2r	0A	2.a	2e	1cc
1F	1c	.	.	4f	.
.	.	.	4g	4g	.
.	.	.	2.f	4a	1a
.	.	.	.	4b	.
2F	2c	.	.	2cc	.
.	.	.	4e	.	.
=31	=31	=31	=31	=31	=31
0G	2g	0B	4d	2b	1dd
.	.	.	4c	.	.
.	2G	.	4B	1b	.
.	.	.	4A	.	.
.	4B	.	2G	.	[1dd
.	4c	.	.	.	.
.	4d	.	[2g	2g	.
.	4e	.	.	.	.
=32	=32	=32	=32	=32	=32
0D	1d	0A	2g]	0a	2dd]
.	.	.	4f#	.	2dd
.	.	.	4e	.	.
.	1d	.	1f#	.	1dd
=33	=33	=33	=33	=33	=33
1G	2r	0G	1g	1d	2b
.	2B	.	.	.	2dd
1C	2c	.	2r	1g	2ee
.	2e	.	2G	.	2cc
=34	=34	=34	=34	=34	=34
1r	2d	0G	2B	1g	4b
.	.	.	.	.	8cc
.	.	.	.	.	8dd
.	1c	.	2c	.	2ee
2r	.	.	1d	2r	1dd
2G	2B	.	.	2g	.
=35	=35	=35	=35	=35	=35
2A	1c	1r	2r	2e	[0cc
1F	.	.	4A	1a	.
.	.	.	4B	.	.
.	1r	1c	4c	.	.
.	.	.	4d	.	.
2E	.	.	[2e	2g	.
=36	=36	=36	=36	=36	=36
1A	0r	1c	2e]	2e	1cc]
.	.	.	2c	2f	.
1G	.	1B	2r	1g	1r
.	.	.	2g	.	.
=37	=37	=37	=37	=37	=37
2.F	1f	1A	2a	0c	0r
.	.	.	1f	.	.
8E	.	.	.	.	.
8D	.	.	.	.	.
1C	2g	1c	.	.	.
.	[2a	.	2e	.	.
=38	=38	=38	=38	=38	=38
1G	4a]	1B	2.d	0r	2r
.	4g	.	.	.	.
.	2.g	.	.	.	2dd
.	.	.	8c	.	.
.	.	.	8B	.	.
2r	.	1A	2c	.	2ee
.	4f	.	.	.	.
2D	4f	.	2A	.	2dd
.	8e	.	.	.	.
.	8f	.	.	.	.
=39	=39	=39	=39	=39	=39
2E	2g	1G	2r	2r	2b
2C	2e	.	2.c	2g	2.cc
1F	2f	1A	.	2c	.
.	.	.	4c	.	4b
.	2c	.	2f	2cc	2a
=40	=40	=40	=40	=40	=40
1G	1r	1B	0d	2b	4g
.	.	.	.	.	4a
.	.	.	.	1g	4b
.	.	.	.	.	4cc
1D	2r	1A	.	.	1dd
.	2A	.	.	2f#	.
=41	=41	=41	=41	=41	=41
1G	2B	0G	2r	[0g	2r
.	2d	.	2d	.	2b
2.C	1c	.	2e	.	2cc
.	.	.	[2c	.	2ee
4C	.	.	.	.	.
=42	=42	=42	=42	=42	=42
2G	2d	[0G	2c]	0g]	1dd
2G	1G	.	2B	.	.
1C	.	.	1e	.	1cc
.	[2c	.	.	.	.
=43	=43	=43	=43	=43	=43
[0G	2c]	1G_	[0d	[0g	[0dd
.	4B	.	.	.	.
.	4A	.	.	.	.
.	2.B	1G_	.	.	.
.	4c	.	.	.	.
=44	=44	=44	=44	=44	=44
0G]	0B	0G]	0d]	0g]	0dd]
==	==	==	==	==	==
*-	*-	*-	*-	*-	*-
!!!CDT: 1525/^1526/-1594/2/2
!!!OCY: Italia
!!!AGN: Mass (Paraphrase)
!!!AST: renaissance, vocal
!!!ASW: Antiphon
!!!PWK: Masses, Book 12
!!!RNB: Cadence finals: C
!!!YOR: Le Opere Complete, v. 29, p. 123
!!!YOO: Rome, Italy: Fratelli Scalera
!!!END: 1992//
!!!EED: John Miller
!!!YEC: Copyright 2000, John Miller
!!!YEN: United States of America
!!!YEM: Rights to all derivative electronic formats reserved.
!!!YEM: Refer to licensing agreement for further details.
!!!YEM: This file must be accompanied by the licensing agreement.
!!!YEM: A copy of the licensing agreement may be found at http://www.music-cog.ohio-state.edu/HumdrumDatabases/Palestrina/license.txt
!!!EMD: converted to Humdrum by Bret Aarden
